!!!OTL: Freiheit mein Vergn&uuml;gen (70), S. 204
!!!id: T0219
**kern
*clefG2
*k[]
*C:
{4g
=1
4g
4g
4g
4g
=2
4g
8ee
8ee
4cc}
=3
{8ee
8ee
=4
4.dd
8b
8dd
8dd
8cc
8a
=5
4g
4g
4g}
=6
{8g
8f
=7
4e
4dd
8dd}
=8
{8cc
8b
8a
=9
4g
4ee
4ee}
4r
=10
{4.g
8g
4a
4b
=11
4cc
4ee
4g}
=12
{8ee
8ee
=13
4.dd
8b
8dd
8dd
8cc
8a
=14
4g
4g
4g}
==
*-
!!!minrhy: 8
!!!meters: 4/4 ]  ZZ[6
!!!cut: Freiheit mein Vergn&uuml;gen (70), S. 204
!!!reg: Luxemburg
!!!trd: Singendes Volk, Esch-Alzette 1937 posth.
!!!rhy1: X_  X_X_X_X_  X_XXX_
!!!rhy2: XX  X_.XXXXX  X_X_X_
!!!key: T0219  08  C 4/4 ]  ZZ[6
!!!mod: HEPTATONIK IONISCH]  AMBITUS[8
!!!kad: +15+2+355
!!!akz: 555+1_+2+255_3+2_5+3_56+15_+2+255_
!!!fot: 'a__b__c__d__e__b__
!!!for: 'a__b__aw_aw_c__b__
!!!fok: '/__\__Va_Va_^__\__
!! PHRAS[VORWIEGEND AUFTAKTIG]
!!!fkt: Liebeslieder
!!!bem1: Esch-Alzette, fff Anna M&uuml;ller, 1914;
!!!bem2: Blascheid, Johann Hitting, 1902
!! THILL, Mathias:
!! PR[44] 2K[0] 2G[3] 3K[6] 3G[6] 4A[3] 4Ü[0] 5A[0] 6K[0] 6G[0]
!! 7K[0] 7G[0] 8A[0] MEHR[0] SI[17] ABS[36] SR[3] SP[14]
!! ST[7] 2k[11] 2g[28] 3k[0] 3g[0] 4d[0] 4ü[0] 5d[0] 6k[0] 6g[0]
!! 7k[0] 7g[0] 8d[0] mehr[0] si[39] dm[-22] sr[39] sp[0]
!! 1F[86] 2F[14] 3F[0] 4F[0] LF[0] 2P[0] 3P[0] 4P[0] TRI[0] DF[2] AB[37]
!! TF[0] U3K[0] U3[0] U4[0] U4Ü[0] U5[0] U6K[0] U6[0] U7K[0] U7[0]
!! N1[5] N2K[0] N2[5] N3K[0] N3[27] N4[22] N4Ü[0] N5[35] N6K[0] N6[5]
!!!n7k: 0] N7[0] O1[0] O2K[0] O2[0] O3K[0] O3[0] HÖ[0
!!!RNB: symbol: &uuml;  = u umlaut (UTF-8: Ã¼)
